public/assets/images/pep/tff1.svg

<svg width="360" height="360" viewBox="0 0 360 360" fill="none" xmlns="http://www.w3.org/2000/svg">
<path d="M180.1 287.001C155.3 287.001 132.2 282.201 112.7 274.001L116.9 262.601C135.9 269.101 157.4 272.801 180.1 272.801C203.2 272.801 224.8 268.901 244 262.201L248.2 273.601C228.5 282.001 205.1 287.001 180.1 287.001ZM236.1 255.801C219.2 261.401 200.2 264.601 180.1 264.601C160.2 264.601 141.5 261.601 124.8 256.001L131.1 238.701C145.4 247.501 162.1 252.401 180 252.401C198.1 252.401 215 247.301 229.5 238.301L236.1 255.801ZM94.4998 159.001C94.4998 111.801 132.9 73.4008 180.1 73.4008C184.3 73.4008 188.6 73.8008 192.6 74.3008L176.6 113.401C175.9 115.001 176.2 116.701 177.3 118.001L192.8 135.301L176.8 182.801C176.1 184.701 177 187.001 178.9 188.101C179.6 188.501 180.3 188.601 180.8 188.601C182 188.601 183.4 188.101 184.3 186.801L222.7 135.201C223.8 133.801 223.8 132.001 223.1 130.601L212.4 111.101L229.1 89.1008C251.3 104.601 265.7 130.101 265.7 159.201C265.7 188.101 251.4 213.601 229.6 229.101C228.7 229.801 227.8 230.301 226.8 231.001C213.4 239.801 197.4 244.901 180.1 244.901C163.2 244.901 147.4 240.001 134 231.501C132.6 230.601 131.2 229.701 130 228.701C108.4 212.701 94.4998 187.501 94.4998 159.001ZM255.6 270.101L251.6 259.201L248.6 251.101C247 251.801 245.4 252.501 243.7 253.001L243.2 251.601L236.5 233.501C259 216.401 273.7 189.301 273.7 158.801C273.7 124.301 254.9 94.0008 227 77.8008L224.9 80.4008L224.5 80.8008L221.9 84.1008L204 107.701C202.9 109.101 202.8 110.901 203.6 112.501L214.3 132.201L192.1 162.101L201.1 135.501C201.6 134.101 201.3 132.301 200.2 131.301L185 114.201L201.7 73.2008L203.6 68.3008C196 66.4008 188.1 65.3008 179.8 65.3008C128.2 65.3008 86.2998 107.201 86.2998 158.801C86.2998 189.401 101.1 216.701 124 233.801L117.5 251.601L117 253.201C115.4 252.501 113.7 252.001 112.1 251.301L109.1 259.401L105.1 270.301L102.1 278.601C124.3 288.801 151.2 294.801 180.1 294.801C207.7 294.801 233.4 289.301 255.1 280.001L259 278.601L258.8 278.201L255.6 270.101Z" fill="white"/>
</svg>

<?xml version="1.0" encoding="utf-8"?>
<!-- Generator: Adobe Illustrator 25.2.1, SVG Export Plug-In . SVG Version: 6.00 Build 0)  -->
<svg version="1.1" id="Layer_1" xmlns="http://www.w3.org/2000/svg" xmlns:xlink="http://www.w3.org/1999/xlink" x="0px" y="0px"
	 viewBox="0 0 360 360" style="enable-background:new 0 0 360 360;" xml:space="preserve">
<style type="text/css">
	.st0{fill:#02E30F;}
</style>
<path class="st0" d="M180.1,287c-24.8,0-47.9-4.8-67.4-13l4.2-11.4c19,6.5,40.5,10.2,63.2,10.2c23.1,0,44.7-3.9,63.9-10.6l4.2,11.4
	C228.5,282,205.1,287,180.1,287 M236.1,255.8c-16.9,5.6-35.9,8.8-56,8.8c-19.9,0-38.6-3-55.3-8.6l6.3-17.3
	c14.3,8.8,31,13.7,48.9,13.7c18.1,0,35-5.1,49.5-14.1L236.1,255.8z M94.5,159c0-47.2,38.4-85.6,85.6-85.6c4.2,0,8.5,0.4,12.5,0.9
	l-16,39.1c-0.7,1.6-0.4,3.3,0.7,4.6l15.5,17.3l-16,47.5c-0.7,1.9,0.2,4.2,2.1,5.3c0.7,0.4,1.4,0.5,1.9,0.5c1.2,0,2.6-0.5,3.5-1.8
	l38.4-51.6c1.1-1.4,1.1-3.2,0.4-4.6l-10.7-19.5l16.7-22c22.2,15.5,36.6,41,36.6,70.1c0,28.9-14.3,54.4-36.1,69.9
	c-0.9,0.7-1.8,1.2-2.8,1.9c-13.4,8.8-29.4,13.9-46.7,13.9c-16.9,0-32.7-4.9-46.1-13.4c-1.4-0.9-2.8-1.8-4-2.8
	C108.4,212.7,94.5,187.5,94.5,159 M255.6,270.1l-4-10.9l-3-8.1c-1.6,0.7-3.2,1.4-4.9,1.9l-0.5-1.4l-6.7-18.1
	c22.5-17.1,37.2-44.2,37.2-74.7c0-34.5-18.8-64.8-46.7-81l-2.1,2.6l0,0l-0.4,0.4l-2.6,3.3l0,0L204,107.7c-1.1,1.4-1.2,3.2-0.4,4.8
	l10.7,19.7l-22.2,29.9l9-26.6c0.5-1.4,0.2-3.2-0.9-4.2L185,114.2l16.7-41l0,0l1.9-4.9c-7.6-1.9-15.5-3-23.8-3
	c-51.6,0-93.5,41.9-93.5,93.5c0,30.6,14.8,57.9,37.7,75l-6.5,17.8l-0.5,1.6c-1.6-0.7-3.3-1.2-4.9-1.9l-3,8.1l-4,10.9l0,0l-3,8.3l0,0
	c22.2,10.2,49.1,16.2,78,16.2c27.6,0,53.3-5.5,75-14.8l3.9-1.4l-0.2-0.4L255.6,270.1z"/>
</svg>
